public/static/img/user/iden3.svg

<svg width="163" height="98" viewBox="0 0 163 98" fill="none" xmlns="http://www.w3.org/2000/svg">
<rect width="162.5" height="98" rx="16" fill="white" fill-opacity="0.1"/>
<path d="M92.7508 62.4047V51.4512H72.1765V61.8837L82.4819 68.4268L92.7508 62.0291" fill="#505050"/>
<path d="M94.5078 60.7377C94.2903 60.6931 94.0829 60.6089 93.8959 60.4893L89.4914 62.6521C87.312 63.7209 84.909 64.2537 82.4821 64.2063C80.0553 64.1588 77.6749 63.5325 75.5389 62.3795L71.4434 60.1621C71.1413 60.4164 70.7939 60.6117 70.4196 60.7377L53.5409 64.6877C51.4932 65.1663 50.5905 67.5715 50.5905 69.6799L52.7897 97.918C52.7897 97.918 62.0651 97.9604 73.4064 97.9604H111.199C111.458 97.9588 111.707 97.8549 111.891 97.6712C112.075 97.4875 112.179 97.2388 112.18 96.979V68.4924C112.18 66.378 113.192 65.1058 111.132 64.6211L94.5078 60.7377Z" fill="#404040"/>
<path d="M72.1765 54.4743V59.3877C85.1415 60.9931 92.7084 52.8446 92.7084 52.8446V51.4512H72.1765" fill="#474747"/>
<path d="M112.059 65.0469C112.059 65.0469 113.858 66.7069 115.124 67.9731C115.985 68.8334 117.663 71.6566 120.195 76.4003C121.462 80.1202 124 85.809 124 87.6871C114.676 91.4918 109.684 93.4123 109.072 93.4123C108.006 91.2858 105.595 86.6632 101.832 79.5083V76.4003C101.835 75.6059 102.005 74.8208 102.329 74.0957C102.654 73.3705 103.126 72.7213 103.716 72.1897C108.824 67.6883 112.059 65.0469 112.059 65.0469ZM61.2835 72.1897C61.8736 72.7215 62.346 73.3708 62.6705 74.0959C62.9949 74.821 63.1643 75.6059 63.1677 76.4003V79.5083C60.7214 84.1257 58.3081 88.7605 55.9279 93.4123C55.316 93.4123 50.3239 91.4918 41 87.6871C41 85.8029 43.5385 80.1202 44.8047 76.4003C47.3431 71.6566 49.0153 68.8334 49.8755 67.9731C51.1418 66.7069 52.0869 65.4346 52.0869 65.4346C52.0869 65.4346 56.1702 67.6883 61.2835 72.1897Z" fill="#404040"/>
<path d="M43.7627 97.9185H41.3393L41.6301 87.7344H46.2951L43.7627 97.9185Z" fill="#474747"/>
<path d="M54.2073 75.1337C54.7828 74.4794 59.4841 70.5112 64.1854 67.8515C68.8868 65.1919 67.6932 67.8515 67.1116 69.1601C66.5361 70.5112 60.0657 73.8251 59.4841 75.1337C58.8722 76.4847 53.5954 75.788 54.2073 75.1337ZM50.96 85.0937C55.0797 80.4287 57.5394 78.793 58.3694 80.1864C59.5992 82.3129 58.9813 86.4871 63.937 85.7904C68.8868 85.0937 71.3465 87.1839 70.7346 87.8745C70.0863 88.5712 66.3968 88.5712 62.6708 89.2679C58.9449 89.9647 55.2251 92.7455 53.9952 92.7455C53.1652 92.7455 52.1535 90.207 50.96 85.0937Z" fill="#505050"/>
<path d="M54.3891 97.9193C54.7162 97.3861 55.5099 89.0861 55.5099 86.996C55.5099 84.8695 57.3516 81.392 57.3516 81.392H59.1934C59.8053 81.392 60.4232 81.392 60.4232 82.0887C60.4232 82.7854 56.6973 82.7854 57.3153 83.4821C57.9272 84.1788 60.4232 86.2629 62.265 84.1788C64.1067 82.0948 64.1067 76.4907 63.4948 75.794C62.8829 75.0973 53.5894 75.0973 51.7476 75.794C49.2879 79.0656 48.567 79.2715 43.2174 97.9193H54.3891Z" fill="#505050"/>
<path d="M118.905 87.7285H123.546L123.83 97.9127H121.419L118.905 87.7285Z" fill="#474747"/>
<path d="M105.534 75.1337C104.958 73.8251 98.5184 70.5112 97.9428 69.1601C97.3673 67.8515 96.1798 65.1919 100.857 67.8515C105.534 70.5112 110.211 74.4794 110.787 75.1337C111.392 75.788 106.14 76.4847 105.534 75.1337ZM111.974 92.7455C110.75 92.7455 107.049 89.9647 103.341 89.2679C99.6392 88.5712 95.9678 88.5712 95.3195 87.8745C94.7076 87.1778 97.1552 85.0937 102.081 85.7904C107.006 86.4871 106.394 82.3129 107.618 80.1864C108.448 78.793 110.89 80.4348 114.991 85.0937C113.81 90.207 112.798 92.7455 111.974 92.7455Z" fill="#505050"/>
<path d="M121.964 97.9193C116.639 79.2715 115.924 79.0656 113.477 75.794C111.641 75.0973 102.396 75.0973 101.79 75.794C101.178 76.4907 101.178 82.0948 103.014 84.1788C104.849 86.2629 107.327 84.1788 107.939 83.4821C108.551 82.7854 104.843 82.7854 104.843 82.0887C104.843 81.392 105.455 81.392 106.067 81.392H107.903C107.903 81.392 109.739 84.8695 109.739 86.996C109.739 89.0801 110.532 97.3861 110.853 97.9193H121.964Z" fill="#505050"/>
<path d="M68.5779 25.4414L69.5593 46.4216C69.6442 48.3845 70.6256 50.1839 72.219 51.3713L76.7991 54.764C77.9442 55.6243 79.3376 56.0727 80.7674 56.0727H85.1839C86.6137 56.0727 88.0072 55.6243 89.1522 54.764L93.7323 51.3713C95.3257 50.1839 96.2708 48.3845 96.392 46.4216L97.3734 25.4414H68.5779Z" fill="#505050"/>
<path d="M68.699 16.8944L70.3772 18.0394C62.7315 23.6435 64.1613 33.2157 64.1613 33.2157C66.4514 35.4634 66.4514 41.1522 66.4514 41.1522L68.7414 38.9046C68.7414 38.9046 67.8387 32.3615 72.1765 29.8654C76.1872 27.5329 79.6587 28.7204 83.221 28.7204C92.7933 28.7204 95.4529 25.1641 94.9985 20.7839C94.7501 18.5362 91.2787 13.8289 82.4395 13.9924C78.8832 14.0288 72.1766 15.0951 68.699 16.8944Z" fill="#404040"/>
<path d="M89.3945 18.8945L90.4607 26.3766C95.3256 27.3581 96.0648 34.925 96.1435 37.0939C96.1435 37.5059 96.3071 37.8694 96.5131 38.1966L98.3972 41.0622C98.3972 41.0622 97.7429 36.3185 100.687 33.1257C100.645 33.1742 101.669 14.3992 89.3945 18.8945Z" fill="#404040"/>
<path d="M99.5423 40.6128L98.2336 45.7261C98.1561 46.0237 97.9807 46.2865 97.7356 46.4722C97.4905 46.658 97.1901 46.7558 96.8826 46.7499C96.1859 46.7499 96.3737 46.653 96.3737 46.653L96.1859 40.2372C96.2586 38.6196 96.3858 37.7048 96.7978 37.7048C98.3548 37.7108 99.9058 39.1406 99.5423 40.6128ZM65.8394 40.6128L67.148 45.7261C67.2255 46.0237 67.4009 46.2865 67.646 46.4722C67.8911 46.658 68.1916 46.7558 68.499 46.7499C69.1958 46.7499 69.4987 46.6166 69.6077 46.2471L69.2563 39.8615C69.2624 38.4378 69.2382 37.5775 68.1719 37.7108C66.5846 37.9047 65.4698 39.1406 65.8394 40.6128Z" fill="#505050"/>
<rect x="65.25" y="67.9551" width="34.5" height="20.1006" rx="1.75" fill="#2B2B2B" stroke="#2B2B2B" stroke-width="0.5"/>
<rect x="68.1532" y="72.7539" width="1.68168" height="1.68168" rx="0.840841" fill="#404040"/>
<rect x="70.2554" y="72.7539" width="1.68168" height="1.68168" rx="0.840841" fill="#404040"/>
<rect x="72.3574" y="72.7539" width="1.68168" height="1.68168" rx="0.840841" fill="#404040"/>
<rect x="68.1532" y="75.9062" width="10.7207" height="1.68168" rx="0.840841" fill="#404040"/>
<rect x="68.1532" y="78.6387" width="14.0841" height="1.68168" rx="0.840841" fill="#404040"/>
<rect x="68.1532" y="83.8906" width="28.5886" height="1.68168" rx="0.840841" fill="#404040"/>
<path d="M89.9693 78.6495H92.3567V80.6195H89.9614L89.9693 78.6495ZM88.4536 76.0122C88.4536 76.3626 88.2416 76.6465 87.9746 76.6465C87.7076 76.6465 87.4963 76.3626 87.4963 76.0122C87.4963 75.6618 87.7083 75.3781 87.9753 75.3781C88.2423 75.3781 88.4543 75.662 88.4543 76.0122M94.8388 76.0034C94.8388 76.3537 94.6266 76.6376 94.3597 76.6376C94.0927 76.6376 93.8802 76.3531 93.8802 76.0034C93.8802 75.6537 94.0922 75.3691 94.3591 75.3691C94.6261 75.3691 94.8388 75.662 94.8388 76.0034Z" fill="#505050"/>
<path d="M89.9695 78.9336C89.9695 78.9336 90.425 79.1691 91.0767 79.1691C91.8463 79.2006 92.3489 78.9415 92.3489 78.9415V79.177C92.3489 79.177 91.5009 79.6321 91.1239 79.6321C90.739 79.6321 89.9691 79.0981 89.9691 79.0981L89.9695 78.9336Z" fill="#404040"/>
<path d="M94.2808 75.4979C94.2808 76.3098 94.035 77.41 93.6224 78.0045C93.0536 78.8238 91.7709 79.2025 91.1709 79.2025C90.5644 79.2025 89.4103 78.8936 88.8408 78.1689C88.3554 77.5509 88.061 76.3864 88.061 75.4987C88.061 73.5679 89.4511 71.998 91.1709 71.998C92.8907 71.998 94.2808 73.5679 94.2808 75.4987" fill="#505050"/>
<path d="M94.5558 73.894C94.5558 73.894 94.5288 72.6854 93.8393 71.824C93.3578 71.2225 91.8228 70.7858 90.7235 70.8723C90.7235 70.8723 88.5702 70.9584 88.5254 72.3882C88.1319 72.6237 87.7275 73.0299 87.6843 73.7126C87.5981 75.0863 87.8413 75.4474 87.8413 75.4474C87.8413 75.4474 88.1868 75.4474 88.2734 75.9652C88.2734 75.9652 88.4304 76.0596 88.4457 75.9652C88.4692 75.8083 88.3044 75.0548 88.6341 74.3641C88.6748 74.2768 88.7155 74.1989 88.7548 74.1295C89.8344 72.9291 93.0012 73.0535 93.7432 74.366C93.7736 74.4574 93.7956 74.5513 93.8088 74.6467C93.8716 75.0946 93.9502 75.9418 93.9502 75.9418C93.9502 75.9418 94.0679 76.0202 94.1465 75.8319C94.2251 75.6357 94.2094 75.4474 94.2801 75.3924C94.6813 75.1259 94.5793 74.0119 94.5558 73.894Z" fill="#404040"/>
<path fill-rule="evenodd" clip-rule="evenodd" d="M96.2229 81.3616C96.3958 81.5352 96.5469 81.687 96.6681 81.7834C96.6645 81.7873 96.6609 81.7911 96.6573 81.7949H85.5934C85.6915 81.7063 85.8069 81.5765 85.9397 81.4271C86.2771 81.0474 86.7268 80.5415 87.29 80.2654C88.4676 79.6924 89.9616 79.8673 89.9616 79.8673L89.9695 79.9222C90.0716 80.0325 90.5426 80.4563 91.1631 80.4563C91.7914 80.4563 92.2547 80.0011 92.3489 79.899V79.8606C92.3489 79.8606 93.7033 79.6935 94.8735 80.2664C95.3685 80.5032 95.847 80.9839 96.2229 81.3616Z" fill="#404040"/>
</svg>

<svg width="163" height="98" fill="none" xmlns="http://www.w3.org/2000/svg"><rect width="162.5" height="98" rx="16" fill="#fff" fill-opacity=".1"/><path d="M92.75 62.405V51.45H72.178v10.433l10.305 6.543 10.269-6.398" fill="#505050"/><path d="M94.508 60.738a1.81 1.81 0 0 1-.612-.249l-4.405 2.163a15.243 15.243 0 0 1-13.952-.273l-4.096-2.217c-.302.254-.65.45-1.023.576l-16.88 3.95c-2.047.478-2.95 2.883-2.95 4.992l2.2 28.238s9.275.042 20.616.042H111.2a.989.989 0 0 0 .981-.981V68.492c0-2.114 1.012-3.386-1.048-3.87l-16.624-3.884Z" fill="#404040"/><path d="M72.177 54.474v4.914c12.964 1.605 20.531-6.543 20.531-6.543V51.45H72.177" fill="#474747"/><path d="M112.059 65.047s1.799 1.66 3.065 2.926c.861.86 2.539 3.684 5.071 8.427 1.267 3.72 3.805 9.41 3.805 11.287-9.324 3.805-14.316 5.725-14.928 5.725-1.066-2.126-3.477-6.749-7.24-13.904V76.4a5.703 5.703 0 0 1 1.884-4.21c5.108-4.502 8.343-7.143 8.343-7.143ZM61.283 72.19a5.7 5.7 0 0 1 1.885 4.21v3.108a1090.31 1090.31 0 0 0-7.24 13.904c-.612 0-5.604-1.92-14.928-5.725 0-1.884 2.538-7.567 3.805-11.287 2.538-4.743 4.21-7.567 5.07-8.427 1.267-1.266 2.212-2.538 2.212-2.538s4.083 2.253 9.196 6.755Z" fill="#404040"/><path d="M43.763 97.918h-2.424l.291-10.184h4.665l-2.532 10.184Z" fill="#474747"/><path d="M54.207 75.134c.576-.655 5.277-4.623 9.978-7.282 4.702-2.66 3.508 0 2.927 1.308-.576 1.351-7.046 4.665-7.628 5.974-.612 1.35-5.889.654-5.277 0Zm-3.247 9.96c4.12-4.665 6.58-6.301 7.41-4.908 1.23 2.127.611 6.301 5.567 5.604 4.95-.696 7.41 1.394 6.798 2.084-.649.697-4.338.697-8.064 1.394s-7.446 3.478-8.676 3.478c-.83 0-1.841-2.539-3.035-7.652Z" fill="#505050"/><path d="M54.39 97.92c.326-.534 1.12-8.834 1.12-10.924 0-2.126 1.842-5.604 1.842-5.604h1.841c.612 0 1.23 0 1.23.697 0 .696-3.726.696-3.108 1.393.612.697 3.108 2.78 4.95.697 1.842-2.084 1.842-7.688 1.23-8.385-.612-.697-9.906-.697-11.747 0-2.46 3.272-3.181 3.478-8.53 22.125h11.171Z" fill="#505050"/><path d="M118.905 87.728h4.641l.284 10.185h-2.411l-2.514-10.184Z" fill="#474747"/><path d="M105.534 75.134c-.576-1.309-7.016-4.623-7.591-5.974-.576-1.308-1.763-3.968 2.914-1.308s9.354 6.627 9.93 7.282c.605.654-4.647 1.35-5.253 0Zm6.44 17.612c-1.224 0-4.925-2.781-8.633-3.478-3.702-.697-7.373-.697-8.021-1.394-.612-.696 1.835-2.78 6.761-2.084 4.925.697 4.313-3.477 5.537-5.604.83-1.393 3.272.249 7.373 4.908-1.181 5.113-2.193 7.652-3.017 7.652Z" fill="#505050"/><path d="M121.964 97.92c-5.325-18.648-6.04-18.854-8.487-22.126-1.836-.697-11.081-.697-11.687 0-.612.697-.612 6.3 1.224 8.385 1.835 2.084 4.313 0 4.925-.697.612-.697-3.096-.697-3.096-1.393 0-.697.612-.697 1.224-.697h1.836s1.836 3.478 1.836 5.604c0 2.084.793 10.39 1.114 10.923h11.111ZM68.578 25.441l.981 20.98c.085 1.964 1.067 3.763 2.66 4.95l4.58 3.393a6.592 6.592 0 0 0 3.968 1.309h4.417c1.43 0 2.823-.449 3.968-1.309l4.58-3.393c1.594-1.187 2.539-2.986 2.66-4.95l.981-20.98H68.578Z" fill="#505050"/><path d="m68.699 16.894 1.678 1.145c-7.645 5.604-6.216 15.177-6.216 15.177 2.29 2.247 2.29 7.936 2.29 7.936l2.29-2.247s-.902-6.544 3.436-9.04c4.01-2.332 7.482-1.145 11.044-1.145 9.572 0 12.232-3.556 11.778-7.936-.249-2.248-3.72-6.955-12.56-6.792-3.556.037-10.262 1.103-13.74 2.902Z" fill="#404040"/><path d="m89.394 18.895 1.067 7.482c4.865.981 5.604 8.548 5.683 10.717 0 .412.163.775.37 1.103l1.883 2.865s-.654-4.743 2.29-7.936c-.042.048.982-18.727-11.293-14.231Z" fill="#404040"/><path d="m99.542 40.613-1.308 5.113a1.369 1.369 0 0 1-1.351 1.024c-.697 0-.51-.097-.51-.097l-.187-6.416c.073-1.617.2-2.532.612-2.532 1.557.006 3.108 1.436 2.744 2.908Zm-33.703 0 1.309 5.113a1.369 1.369 0 0 0 1.351 1.024c.697 0 1-.133 1.109-.503l-.352-6.386c.006-1.423-.018-2.283-1.084-2.15-1.587.194-2.702 1.43-2.333 2.902Z" fill="#505050"/><rect x="65.25" y="67.955" width="34.5" height="20.101" rx="1.75" fill="#2B2B2B" stroke="#2B2B2B" stroke-width=".5"/><rect x="68.153" y="72.754" width="1.682" height="1.682" rx=".841" fill="#404040"/><rect x="70.255" y="72.754" width="1.682" height="1.682" rx=".841" fill="#404040"/><rect x="72.357" y="72.754" width="1.682" height="1.682" rx=".841" fill="#404040"/><rect x="68.153" y="75.906" width="10.721" height="1.682" rx=".841" fill="#404040"/><rect x="68.153" y="78.639" width="14.084" height="1.682" rx=".841" fill="#404040"/><rect x="68.153" y="83.891" width="28.589" height="1.682" rx=".841" fill="#404040"/><path d="M89.97 78.65h2.387v1.97H89.96l.008-1.97Zm-1.516-2.638c0 .35-.212.635-.48.635-.266 0-.478-.284-.478-.635 0-.35.212-.634.48-.634.266 0 .478.284.478.634m6.385-.009c0 .35-.212.635-.48.635-.266 0-.479-.285-.479-.635 0-.35.212-.634.48-.634.266 0 .479.293.479.634Z" fill="#505050"/><path d="M89.97 78.934s.455.235 1.107.235c.77.032 1.272-.227 1.272-.227v.235s-.848.455-1.225.455c-.385 0-1.155-.534-1.155-.534v-.164Z" fill="#404040"/><path d="M94.28 75.498c0 .812-.245 1.912-.658 2.506-.568.82-1.851 1.198-2.451 1.198-.607 0-1.76-.308-2.33-1.033-.486-.618-.78-1.783-.78-2.67 0-1.931 1.39-3.501 3.11-3.501s3.11 1.57 3.11 3.5" fill="#505050"/><path d="M94.556 73.894s-.027-1.209-.717-2.07c-.481-.602-2.016-1.038-3.115-.952 0 0-2.154.086-2.199 1.516-.393.236-.797.642-.84 1.325-.087 1.373.156 1.734.156 1.734s.346 0 .432.518c0 0 .157.095.173 0 .023-.157-.142-.91.188-1.6.04-.088.082-.166.12-.236 1.08-1.2 4.247-1.076 4.99.237.03.091.052.185.065.28.063.449.141 1.296.141 1.296s.118.078.197-.11c.078-.196.062-.385.133-.44.401-.266.3-1.38.276-1.498Z" fill="#404040"/><path fill-rule="evenodd" clip-rule="evenodd" d="M96.223 81.362c.173.173.324.325.445.421l-.01.012H85.592c.099-.089.214-.219.347-.368.337-.38.787-.886 1.35-1.162 1.178-.573 2.672-.398 2.672-.398l.007.055c.103.11.574.534 1.194.534.628 0 1.092-.455 1.186-.557v-.038s1.354-.168 2.525.405c.495.237.973.718 1.349 1.096Z" fill="#404040"/></svg>
